X:1
T:Title
%%score { ( 1 3 ) | ( 2 4 ) }
L:1/8
Q:1/4=100
M:4/4
K:C
V:1 treble nm="Grand Piano"
V:3 treble 
V:2 bass 
V:4 bass 
V:1
 c3 B A2 G2 | F2 E2 D2 C2 | [G,CE]2 [EGc]2 [DGB]2 [C^FA]2 | [B,G]6 AB | c3 B A2 G2 | F2 E2 D2 C2 | %6
w: J.~B.~Herbert * * *||||||
 [G,CE]2 [B,DG]2 [CEc]2 [DFB]2 | c4 z4 | e4 d3 d | c2 c2 B>E E2 | A4 [CEG]2 E2 | D2 C2 z def | %12
w: ||||||
 g4 f3 e | d2 c2 BA G2 | A2 G2 [FB]2 [Ec]2 | c2 B2 c2 F2 | z4[K:bass] [B,D]4 | C6 z2 |] %18
w: ||||||
V:2
 C3 B, A,2 G,2 | F,2 E,2 D,2 C,2 | C,2 C,2 D,2 D,2 | G,6 A,B, | C3 B, A,2 G,2 | F,2 E,2 D,2 C,2 | %6
 C,2 B,,2 A,,2 G,,2 | z4[K:treble] c2 z2 | [CG]4 [G,B,G]3 [G,B,F] | %9
 [A,CE]2 [A,E]2[K:bass] [E,^G,E]>[E,G,] [E,G,D]2 | [F,A,C]4 C,2 E,2 | D,2 C,2 z[K:treble] Bcd | %12
 [EGe]4 [DFd]3 [CEc] | [B,DB]2 [A,CA]2 [G,B,G][K:bass][F,A,F] [E,G,E]2 | [F,F]2 z2 z4 | %15
 [G,EG]2 [G,DF]2[K:bass] [A,CE]2 [D,A,D]2 | z4 G,2 z2 | [C,E,]6 z2 |] %18
V:3
 x8 | x8 | x8 | x8 | x8 | x8 | x8 | [CE]4- [CE]-[CEG]cd | x8 | x8 | x8 | z4 G2 z2 | x8 | x8 | x8 | %15
 x8 | E4[K:bass] z2 F,2 | x8 |] %18
V:4
 x8 | x8 | x8 | x8 | x8 | x8 | x8 | C,6[K:treble] z2 | x8 | x4[K:bass] x4 | x8 | %11
 z4 G,2[K:treble] z2 | x8 | x5[K:bass] x3 | C2- [E,C]2 [D,G,]2 [C,C]2 | x4[K:bass] x4 | %16
 [G,C]4 G,,4 | x8 |] %18

